svgs/kucoin.svg

<svg xmlns="http://www.w3.org/2000/svg" width="192" height="192" fill="none" xmlns:v="https://vecta.io/nano"><path d="M36 96l74-74 37 37 9.25 9.25M36 96l74 74 37-37 9.25-9.25M36 96V30m0 66v66" stroke="#000" stroke-width="12" stroke-linecap="round" stroke-linejoin="round"/><circle cx="110" cy="96" r="14" fill="#000"/></svg>

<svg width="192" height="192" viewBox="0 0 192 192" fill="none" xmlns="http://www.w3.org/2000/svg">
<path d="M36 96L110 22L147 59L156.25 68.25M36 96L110 170L147 133L156.25 123.75M36 96V30M36 96V162" stroke="black" stroke-width="12" stroke-linecap="round" stroke-linejoin="round"/>
<circle cx="110" cy="96" r="14" fill="black"/>
</svg>
